projects/elonkit/src/assets/elonkit/empty-state/face.svg

<svg width="56" height="56" viewBox="0 0 56 56" fill="none" xmlns="http://www.w3.org/2000/svg">
  <path fill-rule="evenodd" clip-rule="evenodd"
    d="M13.9993 9.75108C17.8772 6.77141 22.7318 5 28 5C40.7021 5 51 15.2979 51 28C51 40.7021 40.7021 51 28 51C15.2979 51 5 40.7021 5 28C5 22.7318 6.77141 17.8772 9.75108 13.9993C7.39244 17.2236 6 21.1992 6 25.5C6 36.2692 14.7308 45 25.5 45C36.2692 45 45 36.2692 45 25.5C45 14.7308 36.2692 6 25.5 6C21.1992 6 17.2236 7.39244 13.9993 9.75108Z"
    data-mono-a="A50" />
  <path fill-rule="evenodd" clip-rule="evenodd"
    d="M28 3C14.1933 3 3 14.1933 3 28C3 41.8067 14.1933 53 28 53C41.8067 53 53 41.8067 53 28C53 14.1933 41.8067 3 28 3ZM28 5C15.2979 5 5 15.2979 5 28C5 40.7021 15.2979 51 28 51C40.7021 51 51 40.7021 51 28C51 15.2979 40.7021 5 28 5ZM38 23C38 24.1046 37.1046 25 36 25C34.8954 25 34 24.1046 34 23C34 21.8954 34.8954 21 36 21C37.1046 21 38 21.8954 38 23ZM40 23C40 25.2091 38.2091 27 36 27C33.7909 27 32 25.2091 32 23C32 20.7909 33.7909 19 36 19C38.2091 19 40 20.7909 40 23ZM20 25C21.1046 25 22 24.1046 22 23C22 21.8954 21.1046 21 20 21C18.8954 21 18 21.8954 18 23C18 24.1046 18.8954 25 20 25ZM20 27C22.2091 27 24 25.2091 24 23C24 20.7909 22.2091 19 20 19C17.7909 19 16 20.7909 16 23C16 25.2091 17.7909 27 20 27ZM39.2346 38.2897C39.5938 38.7053 39.5037 39.3314 39.065 39.662C38.6263 39.9926 38.0054 39.902 37.642 39.4902C36.5604 38.2647 35.2529 37.2543 33.7878 36.5159C32.0261 35.6281 30.0838 35.1574 28.111 35.1404C26.1383 35.1234 24.1881 35.5605 22.4113 36.4178C20.9338 37.1308 19.6091 38.1185 18.5065 39.3252C18.136 39.7307 17.5137 39.8106 17.0807 39.4725C16.6478 39.1344 16.5685 38.5068 16.9348 38.0975C18.2282 36.6523 19.7944 35.4719 21.5468 34.6263C23.5984 33.6363 25.8503 33.1316 28.1282 33.1512C30.4061 33.1709 32.6489 33.7143 34.6831 34.7395C36.4207 35.6153 37.9664 36.8224 39.2346 38.2897Z"
    data-mono-a="A400" />
</svg>

<svg width="56" height="56" fill="none" xmlns="http://www.w3.org/2000/svg"><path fill-rule="evenodd" clip-rule="evenodd" d="M14 9.751A22.9 22.9 0 0128 5c12.702 0 23 10.298 23 23S40.702 51 28 51 5 40.702 5 28a22.9 22.9 0 014.751-14A19.412 19.412 0 006 25.5C6 36.27 14.73 45 25.5 45S45 36.27 45 25.5 36.27 6 25.5 6C21.2 6 17.224 7.392 14 9.751z" fill="#000" fill-opacity=".04"/><path fill-rule="evenodd" clip-rule="evenodd" d="M28 3C14.193 3 3 14.193 3 28s11.193 25 25 25 25-11.193 25-25S41.807 3 28 3zm0 2C15.298 5 5 15.298 5 28s10.298 23 23 23 23-10.298 23-23S40.702 5 28 5zm10 18a2 2 0 11-4 0 2 2 0 014 0zm2 0a4 4 0 11-8 0 4 4 0 018 0zm-20 2a2 2 0 100-4 2 2 0 000 4zm0 2a4 4 0 100-8 4 4 0 000 8zm19.235 11.29c.359.415.269 1.041-.17 1.372-.439.33-1.06.24-1.423-.172a12.86 12.86 0 00-19.136-.165c-.37.406-.992.486-1.425.147-.433-.338-.512-.965-.146-1.375a14.85 14.85 0 0122.3.193z" fill="#000" fill-opacity=".22"/></svg>
